docs/img/svg/twitter.svg

<svg width="24" height="24" viewBox="0 0 24 24" fill="none" xmlns="http://www.w3.org/2000/svg">
<rect width="24" height="24" rx="12" fill="#4AA2D7"/>
<path d="M16.7727 8.90173C16.7777 9.0274 16.7802 9.15349 16.7802 9.28127C16.7802 13.1684 14.3037 17.6501 9.77462 17.6501C8.38335 17.6501 7.08985 17.1639 6 16.3287C6.19339 16.3554 6.38926 16.3689 6.58725 16.3689C7.74191 16.3689 8.80236 15.9005 9.64463 15.1105C8.56824 15.086 7.65868 14.2368 7.34557 13.0677C7.49575 13.1024 7.64947 13.1206 7.80885 13.1206C8.03377 13.1206 8.25089 13.0851 8.45702 13.0174C7.33176 12.747 6.48205 11.5585 6.48205 10.1339C6.48205 10.1216 6.48205 10.1093 6.48205 10.097C6.81464 10.3175 7.19398 10.4495 7.59776 10.4647C6.93754 9.93795 6.50295 9.03671 6.50295 8.01615C6.50295 7.4771 6.62444 6.97232 6.83589 6.53736C8.0497 8.31699 9.86493 9.48775 11.9104 9.61046C11.8689 9.39509 11.8466 9.17126 11.8466 8.94024C11.8466 7.31632 12.9489 6 14.3093 6C15.017 6 15.657 6.35711 16.1051 6.92747C16.6654 6.79588 17.1932 6.5509 17.6692 6.2141C17.4847 6.90124 17.095 7.47752 16.5864 7.84056C17.0844 7.77032 17.559 7.61207 18 7.37851C17.6706 7.96876 17.2534 8.48666 16.7727 8.90173Z" fill="white"/>
</svg>

<svg width="24" height="24" viewBox="0 0 24 24" fill="none" xmlns="http://www.w3.org/2000/svg"><rect width="24" height="24" rx="12" fill="#4AA2D7"/><path d="M16.773 8.902c.005.125.007.251.007.38 0 3.886-2.476 8.368-7.005 8.368-1.392 0-2.685-.486-3.775-1.321.193.026.39.04.587.04 1.155 0 2.215-.469 3.058-1.258-1.077-.025-1.986-.874-2.3-2.043a2.047 2.047 0 001.112-.05c-1.125-.271-1.975-1.46-1.975-2.884v-.037c.333.22.712.353 1.116.368-.66-.527-1.095-1.428-1.095-2.449 0-.539.121-1.044.333-1.479 1.214 1.78 3.029 2.95 5.074 3.073a3.538 3.538 0 01-.063-.67c0-1.624 1.102-2.94 2.462-2.94.708 0 1.348.357 1.796.927a4.485 4.485 0 001.564-.713c-.184.687-.574 1.264-1.083 1.627.498-.07.973-.229 1.414-.462a5.642 5.642 0 01-1.227 1.523z" fill="#fff"/></svg>
